frontend/src/images/home/3_birds.svg

<svg width="350" height="227" viewBox="0 0 350 227" fill="none" xmlns="http://www.w3.org/2000/svg">
<path d="M202.138 216.486C194.429 213.988 190.121 211.217 188.395 211.229C186.88 211.229 175.471 205.709 166.607 201.677C156.935 197.288 147.227 183.121 148.928 189.342C149.586 191.721 157.854 198.679 164.471 202.391C181.567 212.014 183.094 213.132 183.094 215.999C183.094 218.925 184.894 221.887 188.569 224.979C193.882 229.464 190.89 224.504 195.608 225.634C197.731 226.145 197.818 226.014 197.234 223.076C196.527 219.448 197.706 219.139 204.361 221.185C213.386 223.956 224.994 226.145 226.931 225.431C228.744 224.765 212.778 219.924 202.138 216.486Z" fill="#575757"/>
<path d="M8.57592 8.16742C7.13578 9.74946 4.52863 12.5686 2.80294 14.4361C-1.31884 18.8849 0.444091 20.4431 5.37285 16.72C15.4911 9.05955 29.5076 4.64648 31.0843 8.63132C33.4804 14.6502 37.0684 15.0785 49.384 16.7676C46.5286 12.5924 46.1685 12.4496 47.857 11.8311C50.2158 10.9628 53.2079 13.4845 56.6592 19.2417C59.3781 23.8094 61.2404 25.8078 61.2404 24.2139C61.2404 23.0006 56.2992 14.0674 54.7349 12.4734C40.3335 -2.31215 19.886 -4.21536 8.57592 8.16742Z" fill="#575757"/>
<path d="M337.859 29.1031C325.382 32.6717 320.465 35.134 316.294 39.9039C310.769 46.2202 306.176 45.78 303.382 38.6668C301.247 33.2188 293.041 20.503 293.028 17.3984C293.028 15.1264 286.56 12.0099 299.136 34.5749C301.334 38.4884 302.426 48.3494 300.85 49.8601C298.454 52.1558 305.418 56.8781 311.812 57.2945C314.332 57.461 316.753 57.6632 317.188 57.7584C317.622 57.8417 317.312 56.9376 316.505 55.7481C312.88 50.4667 323.904 39.6184 341.447 31.2086C352.658 25.8201 351.565 25.1897 337.859 29.1031Z" fill="#575757"/>
</svg>

<svg xmlns="http://www.w3.org/2000/svg" width="350" height="227" fill="none"><path fill="#575757" d="M202.138 216.486c-7.709-2.498-12.017-5.269-13.743-5.257-1.515 0-12.924-5.52-21.788-9.552-9.672-4.389-19.38-18.556-17.679-12.335.658 2.379 8.926 9.337 15.543 13.049 17.096 9.623 18.623 10.741 18.623 13.608 0 2.926 1.8 5.888 5.475 8.98 5.313 4.485 2.321-.475 7.039.655 2.123.511 2.21.38 1.626-2.558-.707-3.628.472-3.937 7.127-1.891 9.025 2.771 20.633 4.96 22.57 4.246 1.813-.666-14.153-5.507-24.793-8.945ZM8.576 8.167c-1.44 1.582-4.047 4.402-5.773 6.27-4.122 4.448-2.359 6.006 2.57 2.283C15.49 9.06 29.508 4.646 31.084 8.631c2.396 6.02 5.984 6.447 18.3 8.137-2.855-4.176-3.215-4.318-1.527-4.937 2.359-.868 5.35 1.654 8.802 7.41 2.72 4.568 4.581 6.567 4.581 4.973 0-1.213-4.94-10.147-6.505-11.74C40.334-2.313 19.886-4.217 8.575 8.166ZM337.859 29.103c-12.477 3.569-17.394 6.031-21.565 10.8-5.525 6.317-10.118 5.877-12.912-1.236-2.135-5.448-10.341-18.164-10.354-21.269 0-2.272-6.468-5.388 6.108 17.177 2.198 3.913 3.29 13.774 1.714 15.285-2.396 2.296 4.568 7.018 10.962 7.434 2.52.167 4.941.37 5.376.464.434.084.124-.82-.683-2.01-3.625-5.281 7.399-16.13 24.942-24.54 11.211-5.388 10.118-6.018-3.588-2.105Z"/></svg>
